X:195
T:John Barton
M:2/4
L:1/8
B:Thompson's Compleat Collection of 200 Favourite Country Dances, vol. 1 (London, 1757)
Z:Transcribed and edited by Flynn Titford-Mock, 2007
Z:abc's:AK/Fiddler's Companion
K:G
B|ce Ac|BdGc|BG dB|(3ABA Ac|B(GG)B|c(AA)f|gedB|G>A G:|
|:d|BG ec|dBgd|BG dB|(3ABA Ad|BG ec|dBge|d>gdB|(3GAG G:|
|:d|g(dd)g|a(dd)g|a>bag|f(dd)f|gfed|edcB|cAdB|(3GAG G:|

